public/uploads/logo-heb.svg

<svg width="164" height="51" viewBox="0 0 164 51" fill="none" xmlns="http://www.w3.org/2000/svg">
<path d="M128.758 0H25.4952C11.3936 0 0 11.0691 0 24.7679C0 38.4649 11.3946 49.5349 25.4952 49.5349H128.758C142.717 49.5349 154.111 38.464 154.111 24.7679C154.111 11.0691 142.717 0 128.758 0ZM128.758 47.3203H25.4952C12.6775 47.3203 2.27873 37.2186 2.27873 24.767C2.27873 12.3136 12.6765 2.21273 25.4952 2.21273H128.758C141.577 2.21273 151.974 12.3136 151.974 24.767C151.974 37.2186 141.577 47.3203 128.758 47.3203Z" fill="black"/>
<path d="M120.212 27.8109H116.936V31.9621H118.93C120.639 31.9621 123.061 32.1001 123.203 29.8865C123.346 28.087 121.779 27.8109 120.212 27.8109Z" fill="black"/>
<path d="M120.639 19.2313H117.078V23.7985H120.354C122.348 23.7985 124.057 23.3824 124.057 21.4458C124.2 19.9234 122.349 19.2313 120.639 19.2313Z" fill="black"/>
<path d="M128.758 4.42751H25.4952C13.9585 4.42751 4.55748 13.5591 4.55748 24.7681C4.55748 35.9735 13.9576 45.1069 25.4952 45.1069H128.758C140.295 45.1069 149.696 35.9735 149.696 24.7681C149.696 13.5591 140.295 4.42751 128.758 4.42751ZM47.7149 35.9735H38.1717L38.0296 28.0872H31.0503L30.9073 35.9735H21.5072L20.0831 13.5591H31.3355L31.1925 23.6609H37.8875L37.7453 13.5591H48.9978L47.7149 35.9735ZM59.2516 28.2262H52.5575V23.6609H59.2516V28.2262ZM91.4408 19.6469H74.492L74.3499 23.6599H86.456L86.3139 28.0872H74.2068V31.8233H91.0135L90.5861 35.9726H64.2373L63.2396 13.5582H91.8681L91.4408 19.6469ZM101.981 28.2262H95.1436V23.6609H101.981V28.2262ZM135.025 19.6469C135.025 23.2448 133.458 25.1823 130.182 25.8736C134.313 26.2896 134.17 29.3326 133.743 31.2701C133.316 33.3456 131.892 35.9735 126.195 35.9735H107.394L105.97 13.5591H127.62C133.886 13.5591 135.168 17.4332 135.025 19.6469Z" fill="black"/>
<path d="M163.348 43.9085C162.915 43.1492 162.308 42.5687 161.531 42.1591C160.753 41.7548 159.956 41.5505 159.14 41.5505C158.323 41.5505 157.524 41.7548 156.748 42.1591C155.969 42.5687 155.362 43.1492 154.926 43.9085C154.491 44.6661 154.273 45.4555 154.273 46.2784C154.273 47.0923 154.487 47.8753 154.918 48.6256C155.346 49.3777 155.947 49.9618 156.72 50.3751C157.489 50.792 158.297 51 159.14 51C159.982 51 160.788 50.792 161.56 50.3751C162.33 49.9618 162.93 49.3777 163.358 48.6256C163.787 47.8753 164 47.0923 164 46.2784C163.999 45.4555 163.782 44.6661 163.348 43.9085ZM162.658 48.2341C162.301 48.859 161.803 49.3468 161.158 49.6938C160.513 50.0417 159.84 50.217 159.141 50.217C158.438 50.217 157.768 50.0417 157.124 49.6938C156.479 49.3459 155.976 48.8581 155.619 48.2341C155.26 47.6091 155.08 46.9588 155.08 46.2793C155.08 45.5926 155.262 44.935 155.628 44.3028C155.994 43.6715 156.499 43.1855 157.145 42.8449C157.792 42.506 158.457 42.3335 159.141 42.3335C159.819 42.3335 160.484 42.5051 161.133 42.8449C161.781 43.1855 162.288 43.6715 162.651 44.3028C163.014 44.9341 163.194 45.5926 163.194 46.2793C163.192 46.9588 163.014 47.61 162.658 48.2341Z" fill="black"/>
<path d="M159.989 46.886C159.878 46.7815 159.73 46.6907 159.544 46.6162C159.994 46.5826 160.358 46.4282 160.63 46.153C160.904 45.8759 161.04 45.5553 161.04 45.1828C161.04 44.9203 160.958 44.6714 160.795 44.438C160.629 44.2036 160.412 44.0392 160.137 43.9448C159.862 43.8521 159.417 43.8067 158.802 43.8067H157.004V48.8898H157.848V46.7307H158.343C158.639 46.7307 158.868 46.7888 159.021 46.906C159.245 47.064 159.539 47.4592 159.903 48.0877L160.367 48.8898H161.4L160.761 47.8961C160.457 47.4228 160.2 47.0858 159.989 46.886ZM158.876 46.0285H157.85V44.4943H158.81C159.222 44.4943 159.504 44.5225 159.659 44.5833C159.81 44.6406 159.929 44.7287 160.015 44.8477C160.101 44.9667 160.145 45.1011 160.145 45.2519C160.145 45.4862 160.054 45.6743 159.876 45.816C159.699 45.9558 159.364 46.0285 158.876 46.0285Z" fill="black"/>
</svg>

<?xml version="1.0" encoding="utf-8"?>
<!-- Generator: Adobe Illustrator 16.0.0, SVG Export Plug-In . SVG Version: 6.00 Build 0)  -->
<!DOCTYPE svg PUBLIC "-//W3C//DTD SVG 1.1//EN" "http://www.w3.org/Graphics/SVG/1.1/DTD/svg11.dtd">
<svg version="1.1" id="Layer_1" xmlns="http://www.w3.org/2000/svg" xmlns:xlink="http://www.w3.org/1999/xlink" x="0px" y="0px"
	 width="164px" height="51px" viewBox="0 0 164 51" enable-background="new 0 0 164 51" xml:space="preserve">
<path fill="#4D4D4D" d="M128.758,0H25.495C11.394,0,0,11.069,0,24.768c0,13.697,11.395,24.767,25.495,24.767h103.263
	c13.959,0,25.354-11.071,25.354-24.767C154.111,11.069,142.717,0,128.758,0z M128.758,47.32H25.495
	c-12.817,0-23.216-10.102-23.216-22.553c0-12.454,10.397-22.554,23.216-22.554h103.263c12.819,0,23.217,10.101,23.217,22.554
	C151.975,37.219,141.577,47.32,128.758,47.32z"/>
<path fill="#4D4D4D" d="M120.212,27.811h-3.276v4.151h1.994c1.709,0,4.131,0.138,4.273-2.075
	C123.346,28.087,121.779,27.811,120.212,27.811z"/>
<path fill="#4D4D4D" d="M120.639,19.231h-3.561v4.567h3.275c1.994,0,3.703-0.416,3.703-2.353
	C124.2,19.923,122.35,19.231,120.639,19.231z"/>
<path fill="#4D4D4D" d="M128.758,4.428H25.495c-11.537,0-20.938,9.131-20.938,20.34c0,11.206,9.4,20.339,20.938,20.339h103.263
	c11.537,0,20.938-9.134,20.938-20.339C149.695,13.559,140.295,4.428,128.758,4.428z M47.715,35.974h-9.543l-0.142-7.886H31.05
	l-0.143,7.886h-9.4l-1.424-22.415h11.252l-0.143,10.102h6.695l-0.143-10.102h11.252L47.715,35.974z M59.251,28.227h-6.694v-4.565
	h6.694V28.227z M91.441,19.647H74.492L74.35,23.66h12.106l-0.142,4.428H74.207v3.735h16.807l-0.428,4.149H64.237L63.24,13.558
	h28.628L91.441,19.647z M101.98,28.227h-6.837v-4.565h6.837V28.227z M135.025,19.647c0,3.598-1.567,5.535-4.844,6.227
	c4.131,0.416,3.988,3.458,3.562,5.396c-0.427,2.076-1.851,4.704-7.548,4.704h-18.801l-1.424-22.415h21.649
	C133.887,13.559,135.168,17.433,135.025,19.647z"/>
<path fill="#4D4D4D" d="M163.348,43.908c-0.433-0.759-1.039-1.34-1.816-1.749c-0.778-0.404-1.575-0.608-2.391-0.608
	c-0.817,0-1.617,0.204-2.393,0.608c-0.779,0.409-1.387,0.99-1.822,1.749c-0.435,0.758-0.652,1.547-0.652,2.37
	c0,0.813,0.213,1.597,0.645,2.347c0.428,0.753,1.029,1.337,1.803,1.75c0.768,0.417,1.576,0.625,2.42,0.625
	c0.842,0,1.647-0.208,2.42-0.625c0.77-0.413,1.369-0.997,1.797-1.75c0.43-0.75,0.643-1.533,0.643-2.347
	C163.999,45.455,163.782,44.666,163.348,43.908z M162.658,48.234c-0.357,0.625-0.855,1.112-1.5,1.459
	c-0.645,0.348-1.318,0.523-2.018,0.523c-0.703,0-1.373-0.176-2.017-0.523c-0.646-0.348-1.147-0.836-1.505-1.459
	c-0.359-0.625-0.539-1.275-0.539-1.955c0-0.687,0.182-1.344,0.548-1.977c0.366-0.631,0.871-1.117,1.517-1.458
	c0.647-0.339,1.313-0.511,1.996-0.511c0.678,0,1.344,0.171,1.992,0.511c0.648,0.341,1.155,0.827,1.518,1.458
	c0.363,0.631,0.543,1.29,0.543,1.977C163.191,46.959,163.014,47.609,162.658,48.234z"/>
<path fill="#4D4D4D" d="M159.988,46.886c-0.11-0.104-0.258-0.195-0.444-0.27c0.45-0.034,0.813-0.188,1.086-0.464
	c0.274-0.276,0.41-0.598,0.41-0.97c0-0.263-0.082-0.511-0.245-0.745c-0.166-0.234-0.383-0.398-0.658-0.492s-0.72-0.139-1.335-0.139
	h-1.798v5.083h0.844V46.73h0.495c0.296,0,0.525,0.059,0.679,0.176c0.224,0.158,0.518,0.553,0.881,1.182l0.465,0.802h1.033
	l-0.639-0.993C160.457,47.423,160.2,47.086,159.988,46.886z M158.876,46.028h-1.026v-1.534h0.961c0.412,0,0.693,0.028,0.849,0.09
	c0.151,0.057,0.271,0.145,0.356,0.264s0.129,0.254,0.129,0.404c0,0.234-0.09,0.422-0.269,0.564
	C159.699,45.956,159.363,46.028,158.876,46.028z"/>
</svg>
